X: 5188
T: Bristol Cross
R: barndance
M: 4/4
K: Dminor
|:FE|"Dm" D2 d2 "A" ^c2 A2|"Dm" defg "F" c2 A2|"Dm" F2 d2 "A" E2 ^c2|"Dm" d2 D4:|
ab|"C" c'2 g2 e2 c2|"Dm" a2 f2 "Bb" d2 B2|"Dm" A2 f2 "A" G2 e2|"Dm" d2 F4:|
|:cB|"F" A2 F2 ABcA|"Gm" B2 G4 ^c2|"Dm" d2 ef gfed|"A" ^c2 A4 ag|
"Dm" f2 d2 "Gm" B2 G2|"C" gfed "A" cBAG|"Dm" F2 D2 "A" A,2 ^c2|"Dm" d2 D4:|

